packages/core/src/svgs/tokens/mono/DIKO.svg

<svg width="24" height="24" viewBox="0 0 24 24" fill="none" xmlns="http://www.w3.org/2000/svg">
<path d="M8.34324 5.00378C8.41613 4.85051 8.53143 4.72135 8.67547 4.6316C8.8195 4.54186 8.98626 4.49528 9.156 4.49738H12.9819C13.2945 4.49738 13.5883 4.65993 13.7447 4.9225L21.8718 18.1822C22.0406 18.4573 22.0406 18.7887 21.8843 19.0574C21.8051 19.1922 21.6917 19.3037 21.5556 19.3805C21.4195 19.4573 21.2654 19.4969 21.1092 19.4951H17.1081C16.8704 19.5013 16.6455 19.4138 16.4766 19.245C14.9814 17.8419 13.1081 16.9073 11.0878 16.5569C8.82462 16.2005 6.1489 16.6882 3.52321 19.245C3.3734 19.3912 3.17759 19.481 2.96904 19.4993C2.7605 19.5175 2.55208 19.4631 2.37916 19.3451C2.20984 19.2304 2.08672 19.0595 2.03175 18.8626C1.97679 18.6656 1.99357 18.4556 2.07908 18.2697L8.33698 4.99752L8.34324 5.00378ZM10.7501 6.37289L17.6269 17.6258H19.5338L12.4693 6.37289H10.7501ZM14.3385 15.7441L9.24979 7.24812L5.18615 15.8567C7.08281 14.8509 9.25636 14.4931 11.3753 14.8377C12.4381 15.0064 13.4384 15.3377 14.3385 15.7378V15.7441Z" fill="white"/>
</svg>

<svg xmlns="http://www.w3.org/2000/svg" width="24" height="24" fill="none" viewBox="0 0 24 24">
    <path fill="#fff" d="M8.343 5.004a.89.89 0 0 1 .813-.507h3.826a.89.89 0 0 1 .763.426l8.127 13.26a.85.85 0 0 1 .012.874.89.89 0 0 1-.775.438h-4a.85.85 0 0 1-.632-.25 10.5 10.5 0 0 0-5.39-2.688c-2.262-.356-4.938.131-7.564 2.688a.91.91 0 0 1-1.144.1.86.86 0 0 1-.3-1.075L8.337 4.998zm2.407 1.369 6.877 11.253h1.907L12.469 6.373zm3.589 9.371-5.09-8.496-4.063 8.609a9.84 9.84 0 0 1 6.19-1.02c1.062.17 2.062.5 2.963.9z"/>
</svg>
